X:318
T:Tie the bonnet
T:The rambler's rest
T:Upstairs in a tent
T:In and out the harbour
R:Reel
O:Ireland
D:Michael Tubridy: The Eagle's Whistle (?)
B:Krassen O'Neill's p124
B:Ceol Rince 3, 96
B:O'Neill's 1351
B:O'Neill's 1415
S:My arrangement from various sources- mostly O'Neill's 1351
Z:Transcription, arrangement, chords:Mike Long
M:C|
L:1/8
K:D
"A"~A2Ag "D"fdec|"Am"~A2A=c "G"BGGB|\
"A"~A2Ag "D"fdef|"G"gfge dBGB:|\
"A"Aaaf "G"gfed|"A"(3(cBA) eA fAeA|
"A"Aaaf gfef|"G"gfge dBGB|\
"A"Aaaf "G"gfed|"A"(3(cBA) eA fAeA|"A"afge "D"fdef|"G"gfge dBGB|]
